X: 13373
T: Flee The Glen
R: jig
M: 6/8
K: Bminor
|:fBB Bcd|c2 ee de|fBB Bcd|A2 c2 e2|
fBB Bcd|c2 ee dc|dcB Bcd|c2 B4:|
fgf fed|e2 eedc|ded dcB|c3 cde|
f3 e3|ded c3|dcB Bcd|c2 B4|
fgf fed|e2 eedc|ded dcB|c3 cde|
fgf efe|ded c3|dcB Bcd|ced B3||

